X: 14
M:4/4
L:1/8
K:Bb
fe|dcde fedc|BABd F2 FE|DFBd edcB|A2 c2 c2 fe|
dcde fedc|BABd F2 FE|DFBd ceAc|B2 B2 B2:|
|:AB|cBAG FGAB|c2 c2 c2 Bc|dcBA GABc|d2 d2 d2 FE|

